dist/svg/u1F410.svg

<?xml version="1.0" encoding="UTF-8"?><svg id="Layer_1" xmlns="http://www.w3.org/2000/svg" viewBox="0 0 40 40"><g><path d="M23.55544,36.86256h-1.7859c-.11701,0-.21183-.09493-.21168-.21195l.01478-11.90075,5.24806,1.479-2.99495,10.43008c-.03462,.12055-.14488,.20361-.27031,.20361Z" style="fill:#bdbdbd;"/><path d="M13.50133,36.86256h-2.07291c-.18595,0-.35547-.10652-.43614-.27406l-4.87289-10.11982,4.47909-1.2309,3.25303,11.15792c.06806,.23344-.10702,.46685-.35018,.46685Z" style="fill:#bdbdbd;"/><path d="M35.52274,17.19852s1.67563,3.08717-.22932,4.24239c0,0-1.82721-1.7228-1.24684-4.67031,.04912-.24946-.07002-.50324-.30455-.60142l-1.73397-.7259c-.16312-.06829-.34609,.03928-.36575,.21501l-.57536,5.14256c-.17144,1.53236-.54301,3.04059-1.16277,4.45248-1.0315,2.34993-2.38897,6.77011-1.71635,11.40048,.016,.11016-.06673,.20873-.17805,.20873h-2.03892c-.11459,0-.21484-.0771-.24424-.18785l-2.38697-8.98996c-.13368-.50349-.66054-.78756-1.15323-.61836-1.88585,.64765-6.5425,1.78374-11.97863-.29717-.09371-.03587-.19379-.03846-.28768-.00304-.86623,.32679-5.10535,2.35384-1.38429,9.68531,.09439,.18597-.03305,.41102-.2416,.41102l-1.97684,.00004c-.297,0-.56197-.17971-.66564-.45803-.81635-2.1916-4.1117-11.74247-1.88958-17.60078,1.5479-4.0704,6.07693-4.0704,8.88608-3.89841,2.80915,.17199,7.33819,1.03193,12.84182-1.83455,2.62311-1.36621,3.89183-2.2766,4.50133-2.85533,.40012-.37992,.4107-1.00949,.02843-1.40736l-1.94393-2.02328c-.11938-.12425-.01892-.32987,.15246-.31206l3.53453,.36722c.12108,.01258,.19251-.13264,.10258-.21469-.67603-.61682-2.47132-2.20782-3.93472-3.08509-.15907-.09536-.10175-.33885,.08269-.35826,1.34886-.14194,4.7046-.1387,6.01872,3.12395,1.66256,4.12773,4.0704,7.5675,4.0704,7.5675,0,0,1.89188,3.72642-2.57983,3.32512Z" style="fill:#d5d5d5;"/><path d="M2.2522,16.08378c.68984,.89374,1.81827,1.28037,2.56876,1.44473,.42721,.09356,.82929-.21679,.847-.65377,.03111-.76765-.05706-1.95721-.7469-2.85095s-1.81827-1.28037-2.56876-1.44473c-.42721-.09356-.82929,.21679-.847,.65377-.03111,.76765,.05706,1.95721,.7469,2.85095Z" style="fill:#d5d5d5;"/><ellipse cx="34.4739" cy="11.8856" rx=".87291" ry=".85266"/></g><rect width="40" height="40" style="fill:none;"/></svg>

<svg id="Layer_1" data-name="Layer 1" xmlns="http://www.w3.org/2000/svg" viewBox="0 0 40 40"><defs><style>.cls-1{fill:#bdbdbd;}.cls-2{fill:#d5d5d5;}.cls-3{fill:none;}</style></defs><path class="cls-1" d="M23.555,36.863H21.77a.212.212,0,0,1-.212-.212l.015-11.9,5.248,1.479-3,10.43A.282.282,0,0,1,23.555,36.863Z"/><path class="cls-1" d="M13.5,36.863H11.428a.485.485,0,0,1-.436-.274L6.119,26.469,10.6,25.238,13.852,36.4A.366.366,0,0,1,13.5,36.863Z"/><path class="cls-2" d="M35.523,17.2s1.675,3.087-.23,4.242a5.209,5.209,0,0,1-1.246-4.67.532.532,0,0,0-.3-.6l-1.734-.726a.266.266,0,0,0-.366.215L31.067,20.8A15.273,15.273,0,0,1,29.9,25.253a21.908,21.908,0,0,0-1.716,11.4.181.181,0,0,1-.178.209H25.971a.253.253,0,0,1-.244-.188l-2.387-8.99a.892.892,0,0,0-1.154-.619,17.743,17.743,0,0,1-11.978-.3.4.4,0,0,0-.288,0c-.866.327-5.1,2.354-1.384,9.685a.281.281,0,0,1-.242.412H6.317a.7.7,0,0,1-.665-.458c-.817-2.192-4.112-11.743-1.89-17.6,1.548-4.071,6.077-4.071,8.886-3.9s7.338,1.032,12.842-1.834a20.906,20.906,0,0,0,4.5-2.856.99.99,0,0,0,.029-1.407L28.076,6.785a.185.185,0,0,1,.152-.312l3.535.367a.125.125,0,0,0,.1-.215A29.292,29.292,0,0,0,27.931,3.54a.194.194,0,0,1,.082-.358c1.349-.142,4.705-.139,6.019,3.124A42.755,42.755,0,0,0,38.1,13.873S39.994,17.6,35.523,17.2Z"/><path class="cls-2" d="M2.252,16.084a4.453,4.453,0,0,0,2.569,1.445.7.7,0,0,0,.847-.654,4.451,4.451,0,0,0-.747-2.851,4.447,4.447,0,0,0-2.569-1.445.7.7,0,0,0-.847.654A4.452,4.452,0,0,0,2.252,16.084Z"/><ellipse cx="34.474" cy="11.886" rx="0.873" ry="0.853"/><rect class="cls-3" width="40" height="40"/></svg>
